flaticon/productivity-and-development/stats-4.svg

<svg xmlns="http://www.w3.org/2000/svg" width="32" height="32" viewBox="0 0 24 24">
    <path d="M 23.996094 20.476562 C 23.960938 19.535156 23.53125 18.644531 22.816406 18.03125 L 17.875 13.777344 C 18.542969 12.484375 18.917969 11.015625 18.917969 9.457031 C 18.917969 4.234375 14.683594 0 9.457031 0 C 4.234375 0 0 4.234375 0 9.457031 C 0 14.683594 4.234375 18.917969 9.457031 18.917969 C 11.015625 18.917969 12.484375 18.542969 13.78125 17.875 L 18.03125 22.816406 C 18.644531 23.53125 19.535156 23.960938 20.476562 23.996094 C 20.519531 24 20.5625 24 20.601562 24 C 21.5 24 22.371094 23.640625 23.003906 23.003906 C 23.671875 22.339844 24.03125 21.417969 23.996094 20.476562 Z M 9.457031 17.894531 C 4.796875 17.894531 1.019531 14.117188 1.019531 9.457031 C 1.019531 4.800781 4.796875 1.019531 9.457031 1.019531 C 14.117188 1.019531 17.894531 4.800781 17.894531 9.457031 C 17.894531 14.117188 14.117188 17.894531 9.457031 17.894531 Z M 22.285156 22.285156 C 21.8125 22.753906 21.191406 23.007812 20.515625 22.976562 C 19.847656 22.953125 19.242188 22.660156 18.804688 22.152344 L 14.675781 17.351562 C 15.734375 16.648438 16.648438 15.734375 17.351562 14.675781 L 22.152344 18.804688 C 22.660156 19.242188 22.953125 19.847656 22.976562 20.515625 C 23.003906 21.183594 22.753906 21.8125 22.285156 22.285156 Z M 22.285156 22.285156"/>
    <path d="M 13.519531 8.765625 L 12.496094 8.761719 L 12.46875 13.691406 L 10.980469 13.683594 L 11.019531 6.605469 L 9.996094 6.601562 L 9.957031 13.679688 L 8.675781 13.671875 L 8.726562 4.605469 L 7.707031 4.597656 L 7.65625 13.667969 L 6.324219 13.660156 L 6.359375 7.105469 L 5.335938 7.097656 L 5.300781 13.652344 L 4.363281 13.648438 L 4.355469 14.667969 L 14.457031 14.726562 L 14.460938 13.703125 L 13.492188 13.699219 Z M 13.519531 8.765625"/>
</svg>

<svg xmlns="http://www.w3.org/2000/svg" width="32" height="32" viewBox="0 0 24 24">
    <path d="M23.996 20.477a3.397 3.397 0 0 0-1.18-2.446l-4.941-4.254a9.383 9.383 0 0 0 1.043-4.32C18.918 4.234 14.684 0 9.457 0A9.457 9.457 0 0 0 0 9.457c0 5.227 4.234 9.461 9.457 9.461a9.411 9.411 0 0 0 4.324-1.043l4.25 4.941a3.397 3.397 0 0 0 2.446 1.18c.043.004.085.004.125.004a3.397 3.397 0 0 0 3.394-3.523zM9.457 17.895a8.437 8.437 0 1 1 0-16.875 8.437 8.437 0 1 1 0 16.875zm12.828 4.39a2.33 2.33 0 0 1-1.77.692 2.342 2.342 0 0 1-1.71-.825l-4.13-4.8a9.59 9.59 0 0 0 2.677-2.676l4.8 4.129c.508.437.801 1.043.825 1.71a2.357 2.357 0 0 1-.692 1.77zm0 0"/>
    <path d="M13.52 8.766l-1.024-.004-.027 4.93-1.489-.008.04-7.079-1.024-.003-.039 7.078-1.281-.008.05-9.067-1.019-.007-.05 9.07-1.333-.008.035-6.555-1.023-.007-.035 6.554-.938-.004-.008 1.02 10.102.059.004-1.024-.969-.004zm0 0"/>
</svg>
